X:1194
T:Mary Scott
C:anon.
O:Scotland
S:Agnes Hume's music book, 1704, Adv.MS.5.2.17
N:for some sort of lute
N:original written on a six-line staff!
Z:Jack Campin 1998-2000
F:http://abc.musicaviva.com/tunes/scotland/mary-scott.abc
%Posted June 29th 2000 at abcusers by Jack Campin during a discussion
%about tune identification algorithms.
%  Jack said:
%"Here's a set of tunes that for a dead cert are genetically related.
%Do any of the tune-matching algorithms suggested here detect that?"
M:6/4
L:1/4
K:Amix
DEG "="A2[Bd]|"="A2[Bd] "="[F3/2A3/2]E/D|\
EFA "="[B2d2][Ac]|"="[B2d2]A "="[B2d2]A|
DEG "="A2[Bd]|"="A2[Bd] "="[F3/2A3/2]E/D|GA/G/F/E/ FG/F/E/D/|EFA "="[B2d2]A||
"="[d3D3] "="d>cB|ABd "="[F3/2A3/2]E/D|"="[e3E3] "="e>de|"="fe"="d "="e>dc|
"="[d3D3] "="d>cB|ABd "="[F3/2A3/2]E/D|GA/G/F/E/ FG/F/E/D/|EFA "="[B2d2]A|]
W:
W:
W:  From Musica Viva - http://www.musicaviva.com
W:  the Internet center for free sheet music downloads.


